X: 33791
T: Ray's Classic
R: polka
M: 2/4
K: Gmajor
|:"G"G>F GD|EG ED|G>F GA|BA"D" A2|"G"G>F GD|EG ED|GG AG/A/|BG G2:|:
"G"(3Bcd Bd|"C"e2 e2|(3cde ce|"D"f2 f2|(3def df|"G"g z "D"f>e|"G"dB "D"AB|"G"G2 G2:|

